svg/furkot/icomoon/warning.svg

<svg viewBox="0 0 512 512" xmlns="http://www.w3.org/2000/svg"><path d="m256 46.384 214.552 427.616h-429.104zm0-46.384c-11.032 0-22.072 7.44-30.44 22.328l-218.536 435.552c-16.744 29.768-2.504 54.12 31.656 54.12h434.656c34.152 0 48.392-24.352 31.648-54.12l-218.536-435.552c-8.368-14.88-19.408-22.328-30.44-22.328z"/><path d="m288 416c0 17.672-14.328 32-32 32s-32-14.328-32-32 14.328-32 32-32 32 14.328 32 32zm-32-64c-17.672 0-32-14.328-32-32v-96c0-17.672 14.328-32 32-32s32 14.328 32 32v96c0 17.672-14.328 32-32 32z"/></svg>

<svg xmlns="http://www.w3.org/2000/svg" viewBox="0 0 512 512"><path d="M256 46.384L470.552 474H41.448L256 46.384ZM256 0C244.968 0 233.928 7.44 225.56 22.328L7.024 457.88C-9.72 487.648 4.52 512 38.68 512H473.336C507.488 512 521.728 487.648 504.984 457.88H504.984L286.448 22.328C278.08 7.448 267.04 0 256.008 0V0Z"/><path d="M288 416C288 433.672 273.672 448 256 448S224 433.672 224 416C224 398.328 238.328 384 256 384S288 398.328 288 416ZM256 352C238.328 352 224 337.672 224 320V224C224 206.328 238.328 192 256 192S288 206.328 288 224V320C288 337.672 273.672 352 256 352Z"/></svg>
